src/topics/icons/meteor-icon.svg

<svg height="251" preserveAspectRatio="xMidYMid" viewBox="0 0 256 251" width="256" xmlns="http://www.w3.org/2000/svg"><g fill="#df4f4f"><path d="m.43860078.43823749 218.86179222 231.82763451s7.456213 5.25885 13.158024-.876475c5.701809-6.135325 1.315802-12.27065 1.315802-12.27065z"/><path d="m69.7375247 22.3501121 166.6682983 179.6773729s7.456214 5.258849 13.158024-.876476c5.70181-6.135324 1.315803-12.270649 1.315803-12.270649z"/><path d="m21.0528376 69.2415241 166.6682984 179.6773719s7.456214 5.25885 13.158024-.876474c5.70181-6.135325 1.315802-12.270651 1.315802-12.270651z"/><path d="m128.320766 41.1943244 116.441189 125.5298516s5.209211 3.674045 9.192725-.612341c3.983515-4.286384.919272-8.57277.919272-8.57277z"/><path d="m37.0918028 123.582973 116.4411882 125.529852s5.209212 3.674045 9.192725-.612341c3.983515-4.286385.919273-8.57277.919273-8.57277z"/><path d="m188.159737 68.3650492 52.775067 57.0671568s2.576827 1.721563 4.547343-.286928c1.970515-2.008491.454734-4.016983.454734-4.016983z"/><path d="m66.2287188 181.430322 52.7750672 57.067157s2.576827 1.721564 4.547343-.286927c1.970514-2.008492.454734-4.016983.454734-4.016983z"/></g></svg>

<?xml version="1.0" encoding="UTF-8" standalone="no"?>
<svg width="256px" height="251px" viewBox="0 0 256 251" version="1.1" xmlns="http://www.w3.org/2000/svg" xmlns:xlink="http://www.w3.org/1999/xlink" preserveAspectRatio="xMidYMid">
	<g fill="#DF4F4F">
		<g>
			<path d="M0.438600784,0.438237494 L219.300393,232.265872 C219.300393,232.265872 226.756606,237.524722 232.458417,231.389397 C238.160226,225.254072 233.774219,219.118747 233.774219,219.118747 L0.438600784,0.438237494 L0.438600784,0.438237494 Z"></path>
			<path d="M69.7375247,22.3501121 L236.405823,202.027485 C236.405823,202.027485 243.862037,207.286334 249.563847,201.151009 C255.265657,195.015685 250.87965,188.88036 250.87965,188.88036 L69.7375247,22.3501121 L69.7375247,22.3501121 Z"></path>
			<path d="M21.0528376,69.2415241 L187.721136,248.918896 C187.721136,248.918896 195.17735,254.177746 200.87916,248.042422 C206.58097,241.907097 202.194962,235.771771 202.194962,235.771771 L21.0528376,69.2415241 L21.0528376,69.2415241 Z"></path>
			<path d="M128.320766,41.1943244 L244.761955,166.724176 C244.761955,166.724176 249.971166,170.398221 253.95468,166.111835 C257.938195,161.825451 254.873952,157.539065 254.873952,157.539065 L128.320766,41.1943244 L128.320766,41.1943244 Z"></path>
			<path d="M37.0918028,123.582973 L153.532991,249.112825 C153.532991,249.112825 158.742203,252.78687 162.725716,248.500484 C166.709231,244.214099 163.644989,239.927714 163.644989,239.927714 L37.0918028,123.582973 L37.0918028,123.582973 Z"></path>
			<path d="M188.159737,68.3650492 L240.934804,125.432206 C240.934804,125.432206 243.511631,127.153769 245.482147,125.145278 C247.452662,123.136787 245.936881,121.128295 245.936881,121.128295 L188.159737,68.3650492 L188.159737,68.3650492 Z"></path>
			<path d="M66.2287188,181.430322 L119.003786,238.497479 C119.003786,238.497479 121.580613,240.219043 123.551129,238.210552 C125.521643,236.20206 124.005863,234.193569 124.005863,234.193569 L66.2287188,181.430322 L66.2287188,181.430322 Z"></path>
		</g>
	</g>
</svg>
